X: 25728
T: Mary Grace
R: reel
M: 4/4
K: Adorian
2 A^GAB c2 gd|egdB cA (3AAG||
|:cdef g2 gd|BG (3GGG DGBG|
(3Bcd ef g2 fg|1 egdB A2 AG:|2 a2 af ged||

